!!!COM: Felix Mendelssohn
!!!CNT: Deutsch
!!!TXO: Deutsch
!!!OTL: Nachtlied
!!!LYR: Eichendorff
!!!OPS: Op. 71
!!!ONM: No. 6
!!!ENC: Daniel Alt & Leigh VanHandel
!!!YOR: Sa2mmtliche Lieder fu2r eine Singstimme 
!!!YOR: Neu revidirt von Dr. L. Benda, Ausgabe fu2r mittlere Stimme
!!!YOR: Braunschweig. Henry Litolff's Verlag. Boston and New York: Arthur P. Schmidt.
!!!ODT: 1847/
**kern	**silbe
*staff1	*
=1-	=1
*clefG2	*
*k[]	*
*M2/4	*
4r	.
8r	.
{8e	{Ver-
=2	=2
8.e	-gan-
16e	-gen
8d	ist
8e	der
=3	=3
8.f	lich-
16f	-te
8e}	Tag,}
16r	.
{16e	{von
=4	=4
8a	fer-
8g	-ne
8g-	kommt
8f	der
=5	=5
8e	Glo-
8g	-cken
4d}	Schlag;}
=6	=6
{8g	{so
16g	reis't
16g	die
8.a	Zeit
16a	die
=7	=7
8.b	gan-
16b	-ze
4cc}	Nacht,}
=8	=8
8r	.
{8b-	{nimmt
8.b-	Man-
16c#	-chen
=9	=9
2c#}	mit,}
=10	=10
8r	.
{8f	{der's
8.f	nicht
16B	ge-
=11	=11
4c}	-dacht.}
8r	.
{8e	{Wo
=12	=12
8.e	ist
16e	nun
8d	hin
8e	die
=13	=13
8.f	bun-
16f	-te
8e}	Lust,}
16r	.
{16e	{des
=14	=14
8a	Freun-
8g	-des
8g-	Trost
8f	und
=15	=15
8e	treu-
8g	-e
8.d}	Brust,}
{16g	{der
=16	=16
8.g	Lieb-
16g	-sten
8.a	su2-
16a	-sser
=17	=17
8.b	Au-
16b	-gen-
4cc}	-schein?...}
=18	=18
8r	.
{8b-	{Will
8.b-	Kei-
16c#	-ner,
=19	=19
4c#	Kei-
4c#}	-ner}
=20	=20
8r	.
{16f	{mit
16f	mir
8f	mun-
8B	-ter
=21	=21
4c}	sein?}
8r	.
{8g	{Frisch
=22	=22
8.cc	auf
16cc	denn,
8b	lie-
8cc	-be
=23	=23
8.dd	Nach-
16dd	-ti-
8cc}	-gall,}
{8g	{du
=24	=24
8.cc	Was-
16cc	-ser-
8b	-fall
8e	mit
=25	=25
8.a	hel-
16a	-lem
4a}	Schlag,}
=26	=26
{4ff	{Gott
8dd	lo-
8cc	-ben
=27	=27
8cc	wol-
8b	-len
8a	wir
8g	ver-
=28	=28
8g}	-eint,}
{8g	{bis
8cc	dass
8g-	der
=29	=29
8g	lich-
8g	-te
8a	Mor-
8f	-gen
=30	=30
4e}	scheint,}
4r	.
=31	=31
{4e	{Gott
8c	lo-
8d	-ben
=32	=32
8.e	wol-
16e	-len
8e	wir
8d	ver-
=33	=33
2a}	-eint,}
=34	=34
8r	.
{8g	{bis
8g	dass
8g	der
=35	=35
4cc	lich-
4f	-te
=36	=36
4.d	Mor-
8e	-gen
=37	=37
4c}	scheint!}
4r	.
==	==
*-	*-